!!!OTL: Quartett in C für 2 Violinen, Viola und Violoncello, 2. Satz, KV 465/02
!!!system-decoration: [(s1,s2,s3,s4)]
**kern	**kern	**kern	**kern	**dynam	**kern	**kern	**kern	**kern	**dynam	**kern	**kern	**kern	**kern	**dynam	**kern	**kern	**kern	**kern	**dynam
*part4	*part4	*part4	*part4	*part4	*part3	*part3	*part3	*part3	*part3	*part2	*part2	*part2	*part2	*part2	*part1	*part1	*part1	*part1	*part1
*staff16	*staff15	*staff14	*staff13	*	*staff12	*staff11	*staff10	*staff9	*	*staff8	*staff7	*staff6	*staff5	*	*staff4	*staff3	*staff2	*staff1	*
*I"Violoncello	*	*	*	*	*I"Viola	*	*	*	*	*I"Violino II	*	*	*	*	*I"Violino I	*	*	*	*
*clefF4	*	*clefC3	*	*clefG2	*	*clefG2	*
*k[b-]	*	*k[b-]	*	*k[b-]	*	*k[b-]	*
*M3/4	*	*M3/4	*	*M3/4	*	*M3/4	*
(4F	.	4c	.	4a	.	(4cc	.
4AA	.	(4.A	.	(4.c	.	4.f	.
4C)	.	.	.	.	.	.	.
.	.	16B-yL	.	8e)	.	8g)	.
.	.	16GJ)	.	.	.	.	.
=2	=2	=2	=2	=2	=2	=2	=2
2FF	.	(4E	cresc.	(4g	cresc.	(4b-y	.
.	.	8FL)	.	8fL)	.	4a)	.
.	.	(8F	.	(8f	.	.	.
4r	.	8G	.	8e	.	8r	.
.	.	8AJ)	.	8e-J)	.	8f	.
=3	=3	=3	=3	=3	=3	=3	=3
8F	.	(8B-y	.	(8d	.	(8f	.
8r	.	4d	.	4f	.	4b-y	.
8D	.	.	.	.	.	.	.
8r	.	4f	.	4b-y	.	4dd	.
8BB-y	.	.	.	.	.	.	.
8r	.	8b-y)	.	8dd)	.	8ff)	.
=4	=4	=4	=4	=4	=4	=4	=4
4FF	cresc.	4f	.	(8ccL	.	(8eeL	.
.	.	.	.	16b-yT	.	16ddT	.
.	.	.	.	32a	.	32cc	.
.	.	.	.	32b-yJ)	.	32ddJ)	.
8r	.	4r	.	4a	.	4cc	.
(8FL	.	.	.	.	.	.	.
8G	.	4r	.	4r	.	4r	.
8AJ)	.	.	.	.	.	.	.
=5	=5	=5	=5	=5	=5	=5	=5
8BBnL	.	(4d	.	(4f	.	(2g	.
8BB	.	.	.	.	.	.	.
8C	.	2c)	.	4en	.	.	.
8C	.	.	.	.	.	.	.
8FF#	.	.	.	4e-)	.	4a)	.
8FF#yJ	.	.	.	.	.	.	.
=6	=6	=6	=6	=6	=6	=6	=6
8GGL	.	(4F#	.	(4e-y_	.	(4cc	.
8GG	.	.	.	.	.	.	.
8GG	.	4G	.	8dL	.	4.b-y	.
8GG	.	.	.	8enJ	.	.	.
8AA	.	4C)	.	4f)	.	.	.
8AAJ	.	.	.	.	.	8a)	.
!!LO:LB
=7	=7	=7	=7	=7	=7	=7	=7
8BB-yL	.	(8DL	.	(4d	.	(16aL_	.
.	.	.	.	.	.	16g	.
8BB-y	.	16G	.	.	.	16b-y	.
.	.	16B-yJ)	.	.	.	16dJ)	.
8C	.	(4A	.	4c	.	(4f	.
8C	.	.	.	.	.	.	.
8C	.	4c)	.	4e)	.	4g)	.
8CJ	.	.	.	.	.	.	.
=8	=8	=8	=8	=8	=8	=8	=8
4FF	cresc.	4c	.	(8.fL	.	(8.aL	.
.	.	.	.	16gJ)	.	16b-yJ)	.
8r	.	4r	.	4a	.	4cc	.
(8FL	.	.	.	.	.	.	.
8c	.	4r	.	4r	.	4r	.
8B-yJ)	.	.	.	.	.	.	.
=9	=9	=9	=9	=9	=9	=9	=9
8AL	cresc.	(4c	cresc.	4.cc	cresc.	(4ff	cresc.
(8A'	.	.	.	.	.	.	.
8G'	.	8b-yL)	.	.	.	8eeL)	.
8F'	.	(8a'	.	(8cc'L	.	(8ff'	.
8E'	.	8g'	.	8cc'	.	8gg'	.
8D'J)	.	8f'J)	.	8cc'J)	.	8aa'J)	.
=10	=10	=10	=10	=10	=10	=10	=10
4C	.	4e	.	4cc	.	[8bb-yL	.
.	.	.	.	.	.	(32bb-y_	.
.	.	.	.	.	.	32gg	.
.	.	.	.	.	.	32ee	.
.	.	.	.	.	.	32ccJ	.
8r	.	8r	.	8r	.	8b-y)	.
(8CL	.	(8eL	.	(4b-y	.	8r	.
8E	.	8g	.	.	.	8r	.
8FJ)	.	8fJ)	.	8a)	.	(16aL	.
.	.	.	.	.	.	16ffJ)	.
=11	=11	=11	=11	=11	=11	=11	=11
8BB-yL	.	(2f	.	(8.ddL	.	(8.ffL	.
8BB-y	.	.	.	.	.	.	.
.	.	.	.	16b-yJ)	.	16ddJ)	.
8C	.	.	.	(4.a	.	[4cc	.
8C	.	.	.	.	.	.	.
8C	.	4e)	.	.	.	(16ccL_	.
.	.	.	.	.	.	16cc#	.
8CJ	.	.	.	16b-yL	.	16dd	.
.	.	.	.	16gJ)	.	16b-yJ)	.
!!LO:LB
=12	=12	=12	=12	=12	=12	=12	=12
4F	.	(8cL	.	(16gL	.	(16b-yL	.
.	.	.	.	16f	.	16a	.
.	.	16B-y	.	16e	.	16g	.
.	.	16AJ)	.	16fJ)	.	16fJ)	.
8r	.	(4.A	.	[4c	.	4f	.
(8FFL	.	.	.	.	.	.	.
8AA	.	.	.	(16cL_	.	4r	.
.	.	.	.	16c#	.	.	.
8CJ)	.	16B-yL	.	16d	.	.	.
.	.	16GJ)	.	16B-yJ)	.	.	.
=13	=13	=13	=13	=13	=13	=13	=13
4F	.	8FL	.	8AL	.	8r	.
.	.	8f	.	8a	.	(16ccL	.
.	.	.	.	.	.	16bnJ	.
8r	.	8f	.	8a	.	8ddL	.
(16FL	.	8f	.	8a	.	8ccJ)	.
16EJ	.	.	.	.	.	.	.
8GL	.	8c	.	8a	.	8r	.
8FJ)	.	8cJ	.	8aJ	.	8cc	.
=14	=14	=14	=14	=14	=14	=14	=14
4E	.	8cL	.	8gL	.	8r	.
.	.	8e	.	8g	.	(16ccL	.
.	.	.	.	.	.	16bnJ	.
8r	.	8e	.	8g	.	8ddL	.
(16EL	.	8e	.	8g	.	8ccJ)	.
16DJ	.	.	.	.	.	.	.
8FL	.	8c	.	8g	.	8r	.
8EJ)	.	8cJ	.	8gJ	.	8cc	.
=15	=15	=15	=15	=15	=15	=15	=15
4D	.	8dL	.	8ccL	.	8r	.
.	.	8d	.	8cc	.	(16ffL	.
.	.	.	.	.	.	16eeJ	.
8r	.	8d	.	8cc	.	8ggL	.
(16GL	.	8d	.	8cc	.	8ffJ)	.
16F#J	.	.	.	.	.	.	.
8AL	.	8d	.	8bn	.	8r	.
8GJ)	.	8dJ	.	8bJ	.	8ff	.
=16	=16	=16	=16	=16	=16	=16	=16
4C	.	8cL	.	8ccL	.	8r	.
.	.	8g	.	8cc	.	(16eeL	.
.	.	.	.	.	.	16ddJ	.
8r	.	8g	.	8cc	.	8ffL	.
(16cL	.	8g	.	8cc	.	8eeJ)	.
16BnJ	.	.	.	.	.	.	.
8dL	.	8g	.	8cc	.	8r	.
8cJ)	.	8gJ	.	8ccJ	.	8ee	.
!!LO:LB
=17	=17	=17	=17	=17	=17	=17	=17
4E	.	8b-L	.	8ccL	.	8r	.
.	.	8b-y	.	8cc	.	(16ggL	.
.	.	.	.	.	.	16ff#J	.
8r	.	8b-y	.	8cc	.	8aaL	.
(16EL	.	8b-y	.	8cc	.	8ggJ)	.
16DJ	.	.	.	.	.	.	.
8FL	.	8b-y	.	8cc	.	8r	.
8EJ)	.	8b-yJ	.	8ccJ	.	8gg#	.
=18	=18	=18	=18	=18	=18	=18	=18
4F	.	8aL	.	8ccL	.	8r	.
.	.	8f	.	8cc	.	(16aaL	.
.	.	.	.	.	.	16gg#J	.
8r	.	8f	.	8cc	.	8bb-yL	.
(16FL	.	8f	.	8cc	.	8aaJ)	.
16EJ	.	.	.	.	.	.	.
8GL	.	8c	.	8cc	.	8r	.
8FJ)	.	8cJ	.	8ccJ	.	8aa	.
=19	=19	=19	=19	=19	=19	=19	=19
4F#	.	8AL	.	8cL	.	8r	.
.	.	8A	.	8c	.	(16ddL	.
.	.	.	.	.	.	16cc#J	.
8r	.	8A	.	8c	.	8eeL	.
(16F#yL	.	8A	.	8c	.	8ddJ)	.
16EJ	.	.	.	.	.	.	.
8GL	.	8A	.	8c	.	8r	.
8F#yJ)	.	8AJ	.	8cJ	.	8dd	.
=20	=20	=20	=20	=20	=20	=20	=20
4G	.	8GL	cre	8BnL	cre	(8ddL	.
.	.	(16Bn	.	(16d	.	8gJ)	.
.	.	16AJ	.	16cJ	.	.	.
.	.	.	.	.	.	(<32qf#L	.
.	.	.	.	.	.	32qg	.
.	.	.	.	.	.	32qaJ	.
8r	.	8cL	.	8eL	.	2g)	.
(16GGL	.	8BJ)	.	8dJ)	.	.	.
16FF#J	.	.	.	.	.	.	.
8AAL	.	8r	.	8r	.	.	.
8GGJ)	.	(16cL	.	(16eL	.	.	.
.	.	16BJ	.	16dJ	.	.	.
=21	=21	=21	=21	=21	=21	=21	=21
.	crescendo	.	scen	.	scen	(<32qf#L	crescendo
.	.	.	.	.	.	32qg	.
.	.	.	.	.	.	32qaJ	.
8r	.	8dL	.	8fL	.	2g)	.
(16GGL	.	8cJ)	.	8eJ)	.	.	.
16FF#J	.	.	.	.	.	.	.
8AAL	.	8r	.	8r	.	.	.
8GGJ)	.	(16dL	.	(16fL	.	.	.
.	.	16c#J	.	16eJ	.	.	.
.	.	.	.	.	.	(<32qff#L	.
.	.	.	.	.	.	32qgg	.
.	.	.	.	.	.	32qaaJ	.
8r	.	8eL	.	8gL	.	4gg)	.
(16GGL	.	8dJ)	.	8fJ)	.	.	.
16FF#yJ	.	.	.	.	.	.	.
=22	=22	=22	=22	=22	=22	=22	=22
8AAL	.	8r	do	8r	do	4gg]	.
8GGJ)	.	(16eL	.	(16gL	.	.	.
.	.	16d#J	.	16f#J	.	.	.
.	.	.	.	.	.	(<32qff#L	.
.	.	.	.	.	.	32qgg	.
.	.	.	.	.	.	32qaaJ	.
8r	.	8fL	.	8aL	.	2gg)	.
(8GGL	.	8e	.	8g	.	.	.
8BBn	.	8dn	.	8fn	.	.	.
8CJ)	.	8cJ)	.	8eJ)	.	.	.
=23	=23	=23	=23	=23	=23	=23	=23
4G	.	4Bn	.	4d	.	8ggL]	.
.	.	.	.	.	.	(16gg	.
.	.	.	.	.	.	16ff#J	.
4r	.	4r	.	4r	.	16aaL	.
.	.	.	.	.	.	16gg	.
.	.	.	.	.	.	16ffn	.
.	.	.	.	.	.	16eeJ	.
4r	.	4r	.	4r	.	16ggL	.
.	.	.	.	.	.	16ff	.
.	.	.	.	.	.	16ee	.
.	.	.	.	.	.	16ddJ)	.
=24	=24	=24	=24	=24	=24	=24	=24
8GL	.	8BnL	.	8fL	.	(16cc#L	.
.	.	.	.	.	.	16dd)	.
8GJ	.	8BJ	.	8fJ	.	(16cc#y	.
.	.	.	.	.	.	16ddJ)	.
8G	.	8B	.	8f	.	(16cc#yL	.
.	.	.	.	.	.	16ddJ)	.
8r	.	8r	.	8r	.	8r	.
4r	.	4r	.	4r	.	32r	.
.	.	.	.	.	.	(32ddL	.
.	.	.	.	.	.	32ff	.
.	.	.	.	.	.	32eeJ	.
.	.	.	.	.	.	32ddL	.
.	.	.	.	.	.	32cc	.
.	.	.	.	.	.	32bn	.
.	.	.	.	.	.	32aJ)	.
=25	=25	=25	=25	=25	=25	=25	=25
8BnL	.	8dL	.	8fL	.	(16aL	.
.	.	.	.	.	.	16g)	.
8BJ	.	8dJ	.	8fJ	.	(16a	.
.	.	.	.	.	.	16gJ)	.
8B	.	8d	.	8f	.	(16aL	.
.	.	.	.	.	.	16gJ)	.
8r	.	8r	.	8r	.	8r	.
4r	.	4r	.	4r	.	4r	.
!!LO:LB
=26	=26	=26	=26	=26	=26	=26	=26
!!Error: measure 26, staff 1 is underfilled: adding token 2.ryy at end of measure to complete its duration.
(16CL	.	2.r	.	2.r	.	2.ryy	.
16BBn	.	.	.	.	.	.	.
16C	.	.	.	.	.	.	.
16GGJ	.	.	.	.	.	.	.
16CL	.	.	.	.	.	.	.
16BB	.	.	.	.	.	.	.
16C	.	.	.	.	.	.	.
16GGJ	.	.	.	.	.	.	.
16CL	.	.	.	.	.	.	.
16BB	.	.	.	.	.	.	.
16C	.	.	.	.	.	.	.
16GGJ)	.	.	.	.	.	.	.
=27	=27	=27	=27	=27	=27	=27	=27
(16DL	.	4f	.	2G	.	(4c	.
16C#	.	.	.	.	.	.	.
16D	.	.	.	.	.	.	.
16GGJ	.	.	.	.	.	.	.
16DL	.	(8f'L	.	.	.	4Bn)	.
16C#y	.	.	.	.	.	.	.
16D	.	8f'	.	.	.	.	.
16GGJ	.	.	.	.	.	.	.
16DL	.	8f'	.	4r	.	4r	.
16C#y	.	.	.	.	.	.	.
16D	.	8f'J)	.	.	.	.	.
16GGJ)	.	.	.	.	.	.	.
=28	=28	=28	=28	=28	=28	=28	=28
(16CnL	.	(4f	.	4cc	.	2g	.
16BBn	.	.	.	.	.	.	.
16C	.	.	.	.	.	.	.
16GGJ	.	.	.	.	.	.	.
16CL	.	4e)	.	(8cc'L	.	.	.
16BB	.	.	.	.	.	.	.
16C	.	.	.	8cc'	.	.	.
16GGJ	.	.	.	.	.	.	.
16CL	.	4r	.	8cc'	.	4r	.
16BB	.	.	.	.	.	.	.
16C	.	.	.	8cc'J)	.	.	.
16GGJ)	.	.	.	.	.	.	.
=29	=29	=29	=29	=29	=29	=29	=29
(16DL	.	2g	.	(4cc	.	4ff	.
16C#	.	.	.	.	.	.	.
16D	.	.	.	.	.	.	.
16GGJ	.	.	.	.	.	.	.
16DL	.	.	.	4bn)	.	(8ff'L	.
16C#y	.	.	.	.	.	.	.
16D	.	.	.	.	.	8ff'	.
16GGJ	.	.	.	.	.	.	.
16DL	.	4r	.	4r	.	8ff'	.
16C#y	.	.	.	.	.	.	.
16D	.	.	.	.	.	8ff'J)	.
16GGJ)	.	.	.	.	.	.	.
!!LO:LB
=30	=30	=30	=30	=30	=30	=30	=30
(16CnL	cresc.	4.g	cresc.	4.b-	cresc.	(4ff	cresc.
16BBn	.	.	.	.	.	.	.
16C	.	.	.	.	.	.	.
16GGJ	.	.	.	.	.	.	.
16CL	.	.	.	.	.	8eeL)	.
16BB	.	.	.	.	.	.	.
16C	.	(8g'L	.	(8ee'L	.	(8bb-'	.
16GGJ	.	.	.	.	.	.	.
16CL	.	8g'	.	8ee'	.	8bb-y'	.
16BB	.	.	.	.	.	.	.
16C	.	8g'J)	.	8ee'J)	.	8bb-y'J)	.
16GGJ)	.	.	.	.	.	.	.
=31	=31	=31	=31	=31	=31	=31	=31
4EE	.	4c	.	4gg 4b-y	.	4bb-y 4cc	.
4FF	.	4c	.	4ff 4a	.	4aa 4cc	.
4r	.	4r	.	4r	.	4r	.
=32	=32	=32	=32	=32	=32	=32	=32
2.r	.	4f	.	4cc 4a	.	4dd	.
.	.	(8f'L	.	(8cc'L 8a'	.	(8dd'L	.
.	.	8f'	.	8cc' 8a'	.	8dd'	.
.	.	8f'	.	8cc' 8a'	.	8dd'	.
.	.	8f'J)	.	8cc'J) 8a'	.	8dd'J)	.
=33	=33	=33	=33	=33	=33	=33	=33
2.r	.	4f	.	4cc 4a-	.	(16ddL	.
.	.	.	.	.	.	32ee-	.
.	.	.	.	.	.	32ff	.
.	.	.	.	.	.	16ee-y	.
.	.	.	.	.	.	16ddJ)	.
.	.	(8f'L	.	(8cc'L 8a-y'	.	(8dd'L	.
.	.	8f'	.	8cc' 8a-y'	.	8dd'	.
.	.	8f'	.	8cc' 8a-y'	.	8dd'	.
.	.	8f'J)	.	8cc'J) 8a-y'	.	8dd'J)	.
=34	=34	=34	=34	=34	=34	=34	=34
(4F#	.	(2c	.	(4d	.	(8.aL	.
.	.	.	.	.	.	16ddJ)	.
4G	.	.	.	4e	.	(4cc	.
4G#)	.	4d)	.	4f)	.	4bn)	.
=35	=35	=35	=35	=35	=35	=35	=35
4A	.	8c	.	8e	.	2cc	.
.	.	(8CL	.	(8cL	.	.	.
(4AA	.	8C#	.	8c#	.	.	.
.	.	8D	.	8d	.	.	.
4GG)	.	8E-	.	8e-	.	(8.b-LT	.
.	.	8EnJ)	.	8enJ)	.	.	.
.	.	.	.	.	.	32a	.
.	.	.	.	.	.	32b-yJ)	.
!!LO:LB
=36	=36	=36	=36	=36	=36	=36	=36
4FF	.	8FL	.	8fL	.	(8a	.
.	.	8fJ	.	8ccJ	.	4aa)	.
4r	.	8fL	.	8ccL	.	.	.
.	.	.	.	.	.	(<32qbbnL	.
.	.	.	.	.	.	32qaa	.
.	.	.	.	.	.	32qgg#J	.
.	.	8f	.	8cc	.	(16aaL)	.
.	.	.	.	.	.	16bbnJ	.
4F	.	8f	.	8cc	.	16dddL	.
.	.	.	.	.	.	16ccc	.
.	.	8fJ	.	8ccJ	.	16bb	.
.	.	.	.	.	.	16aaJ)	.
=37	=37	=37	=37	=37	=37	=37	=37
(4E	cresc.	2.g	cresc.	(8cc	cresc.	(4.ggn	cresc.
.	.	.	.	4gg	.	.	.
4D	.	.	.	.	.	.	.
.	.	.	.	8ff#L	.	8aaL	.
4C)	.	.	.	8ffn	.	8bbn	.
.	.	.	.	8eeJ)	.	8cccJ)	.
=38	=38	=38	=38	=38	=38	=38	=38
8GL	.	8r	.	8r	.	(16ggL	.
.	.	.	.	.	.	16ff#	.
8G	.	8e	.	8cc	.	16ffn	.
.	.	.	.	.	.	16eeJ)	.
8G	.	8fL	.	8ccL	.	2ddT	.
8G	.	8f	.	8cc	.	.	.
8G	.	8f	.	8bn	.	.	.
8GJ	.	8fJ	.	8bJ	.	.	.
.	.	.	.	.	.	(32qccL	.
.	.	.	.	.	.	32qddJ)	.
=39	=39	=39	=39	=39	=39	=39	=39
8CL	.	2.e	.	2.cc	.	4cc	.
(16C	.	.	.	.	.	.	.
16BBnJ	.	.	.	.	.	.	.
8DL	.	.	.	.	.	8r	.
8CJ)	.	.	.	.	.	(16ccL	.
.	.	.	.	.	.	16bnJ	.
8r	.	.	.	.	.	8ddL	.
8C	.	.	.	.	.	8ccJ)	.
=40	=40	=40	=40	=40	=40	=40	=40
8r	.	2.f	cre	2.bn	cre	(8eeL	cre
(16CL	.	.	.	.	.	8ddJ)	.
16BBnJ	.	.	.	.	.	.	.
8DL	.	.	.	.	.	8r	.
8CJ)	.	.	.	.	.	(16ddL	.
.	.	.	.	.	.	16cc#J	.
8r	.	.	.	.	.	8eeL	.
8C	.	.	.	.	.	8ddJ)	.
=41	=41	=41	=41	=41	=41	=41	=41
8r	cre	(2g	scen	(2b-	scen	(8ffL	scen
(16CL	.	.	.	.	.	8eeJ)	.
16BBnJ	.	.	.	.	.	.	.
8DL	.	.	.	.	.	8r	.
8CJ)	.	.	.	.	.	(16ffL	.
.	.	.	.	.	.	16eeJ	.
8r	.	4f)	.	4a)	.	8ggL	.
(16CL	.	.	.	.	.	8ffJ)	.
16BBJ	.	.	.	.	.	.	.
=42	=42	=42	=42	=42	=42	=42	=42
8DL	scen	(4c	do	(4a_	do	8r	do
8CJ)	.	.	.	.	.	(16ggL	.
.	.	.	.	.	.	16ff#J	.
8r	.	2B-y)	.	2e)	.	8aaL	.
(16CL	.	.	.	.	.	8ggJ)	.
16BBnJ	.	.	.	.	.	.	.
8DL	.	.	.	.	.	8r	.
8CJ)	.	.	.	.	.	(16aaL	.
.	.	.	.	.	.	16ggJ	.
=43	=43	=43	=43	=43	=43	=43	=43
8r	.	(4A	.	(4f	.	8bb-yL	.
(16CL	.	.	.	.	.	8aaJ)	.
16BBnJ	.	.	.	.	.	.	.
8DL	.	4F	.	4A	.	8r	.
8CJ)	.	.	.	.	.	(16bb-yL	.
.	.	.	.	.	.	16aaJ	.
8r	.	4E)	.	4G)	.	8cccL	.
(16CL	.	.	.	.	.	8bb-yJ)	.
16BBJ	.	.	.	.	.	.	.
=44	=44	=44	=44	=44	=44	=44	=44
8DL	.	2E]	.	2G]	.	8r	.
8CJ)	.	.	.	.	.	(16b-yL	.
.	.	.	.	.	.	16aJ	.
4r	.	.	.	.	.	8cc	.
.	.	.	.	.	.	4b-y	.
4r	.	4r	.	4r	.	.	.
.	.	.	.	.	.	8bn)	.
=45	=45	=45	=45	=45	=45	=45	=45
(4F	.	4c	.	(16.aL	.	(16.ccL	.
.	.	.	.	32f)	.	32a)	.
.	.	.	.	(16.a	.	(16.cc	.
.	.	.	.	32fJ)	.	32aJ)	.
4AA	.	(4.A	.	(4.c	.	(4.f	.
4C)	.	.	.	.	.	.	.
.	.	16B-yL	.	8e)	.	8g)	.
.	.	16GJ)	.	.	.	.	.
!!LO:LB
=46	=46	=46	=46	=46	=46	=46	=46
2FF	.	(4E	cresc.	(4g	cresc.	(4b-y	.
.	.	8FL)	.	8fL)	.	4a)	.
.	.	(8F	.	(8f	.	.	.
4r	.	8G	.	8e	.	8r	.
.	.	8AJ)	.	8e-J)	.	[8f	.
=47	=47	=47	=47	=47	=47	=47	=47
8F	.	(8B-y	.	(8d	.	(16fL_	.
.	.	.	.	.	.	16d	.
8r	.	4d	.	4f	.	8b-yJ)	.
8D	.	.	.	.	.	(16b-yL_	.
.	.	.	.	.	.	16f	.
8r	.	4f	.	4b-y	.	8ddJ)	.
8BB-y	.	.	.	.	.	(16ddL_	.
.	.	.	.	.	.	16b-y	.
8r	.	8b-y)	.	8dd)	.	8ffJ)	.
=48	=48	=48	=48	=48	=48	=48	=48
4FF	cresc.	4f	.	(16ddL_	.	(16ffL_	.
.	.	.	.	16cc#	.	16ee	.
.	.	.	.	16ccn	.	16ee-	.
.	.	.	.	16b-yJ)	.	16ddJ)	.
8r	.	4r	.	4a	.	4cc	.
(8FL	.	.	.	.	.	.	.
8D	.	4r	.	4r	.	4r	.
8CJ)	.	.	.	.	.	.	.
=49	=49	=49	=49	=49	=49	=49	=49
8BBnL	.	(4d	.	(4f	.	(4.g	.
8BB	.	.	.	.	.	.	.
8C	.	2c)	.	4e	.	.	.
8C	.	.	.	.	.	32aL	.
.	.	.	.	.	.	32g	.
.	.	.	.	.	.	32f#	.
.	.	.	.	.	.	32gJ	.
8FF#	.	.	.	4e-)	.	8b-yL	.
8FF#yJ	.	.	.	.	.	8aJ)	.
=50	=50	=50	=50	=50	=50	=50	=50
8GGL	.	(8F#L	.	(8e-yL_	.	(8ccL	.
8GG	.	8GJ)	.	8dJ)	.	8bnJ)	.
8CC#	.	(4G	.	(4en	.	(4.b-	.
8CC#y	.	.	.	.	.	.	.
8DD	.	4Fn)	.	4f)	.	.	.
8DDJ	.	.	.	.	.	8a)	.
!!LO:LB
=51	=51	=51	=51	=51	=51	=51	=51
8BB-yL	.	(4B-y	.	(4d	.	(16aL_	.
.	.	.	.	.	.	16g	.
8BB-y	.	.	.	.	.	16b-y	.
.	.	.	.	.	.	16dJ)	.
8C	.	4A	.	4c	.	(8fL	.
8C	.	.	.	.	.	8f#	.
8C	.	4c)	.	4e)	.	8g	.
8CJ	.	.	.	.	.	8g#J)	.
=52	=52	=52	=52	=52	=52	=52	=52
4FF	cresc.	4c	.	(8.fL	.	(8.aL	.
.	.	.	.	16gJ)	.	16b-yJ)	.
8r	.	4r	.	4a	.	4cc	.
(8cL	.	.	.	.	.	.	.
8Bn	.	4r	.	4r	.	4r	.
8B-J)	.	.	.	.	.	.	.
=53	=53	=53	=53	=53	=53	=53	=53
8AL	cresc.	(4c	cresc.	4.cc	cresc.	(8.ffL	cresc.
(8A'	.	.	.	.	.	.	.
.	.	.	.	.	.	32gg	.
.	.	.	.	.	.	32ffJ	.
8G'	.	8b-yL)	.	.	.	8eeL)	.
8F'	.	(8a'	.	(8cc'L	.	(8ff'	.
8E'	.	8g'	.	8cc'	.	8gg'	.
8D'J)	.	8f'J)	.	8cc'J)	.	8aa'J)	.
=54	=54	=54	=54	=54	=54	=54	=54
4C	.	4e	.	4cc	.	[8bb-yL	.
.	.	.	.	.	.	(32bb-y_	.
.	.	.	.	.	.	32gg	.
.	.	.	.	.	.	32ee	.
.	.	.	.	.	.	32ccJ	.
8r	.	8r	.	8r	.	8b-y)	.
(8CL	.	(8eL	.	(4b-y	.	8r	.
8C#	.	8g	.	.	.	8r	.
8DJ)	.	8fJ)	.	8a)	.	(16aL	.
.	.	.	.	.	.	16ffJ)	.
=55	=55	=55	=55	=55	=55	=55	=55
8BB-yL	.	[4f	.	(8.ddL	.	(8.ffL	.
8BB-y	.	.	.	.	.	.	.
.	.	.	.	16b-yJ)	.	16ddJ)	.
8Cn	.	(8fL_	.	16aL	.	16ccL	.
.	.	.	.	(16ff'	.	(16aa'	.
8C	.	8cJ)	.	16ee'	.	16gg'	.
.	.	.	.	16dd'J	.	16ff'J	.
8C	.	8r	.	16cc'L	.	16ee'L	.
.	.	.	.	16b-y'	.	16dd'	.
8CJ	.	8c	.	16a'	.	16cc'	.
.	.	.	.	16g'J)	.	16b-y'J)	.
!!LO:LB
=56	=56	=56	=56	=56	=56	=56	=56
4F	.	(8cL	.	(16gL	.	(16b-yL	.
.	.	.	.	16f	.	16a	.
.	.	16B-y	.	16e	.	16g	.
.	.	16AJ)	.	16fJ)	.	16fJ)	.
8r	.	16AL	.	16cL	.	4f	.
.	.	(16f'	.	(16a'	.	.	.
(8AAL	.	16e'	.	16g'	.	.	.
.	.	16d'J	.	16f'J	.	.	.
8C	.	16c'L	.	16e'L	.	4r	.
.	.	16B-y'	.	16d'	.	.	.
8EEJ)	.	16A'	.	16c'	.	.	.
.	.	16G'J)	.	16B-y'J)	.	.	.
=57	=57	=57	=57	=57	=57	=57	=57
8EE-L	.	8FL	.	8AL	.	[4cc	.
8EE-y	.	8F	.	8A	.	.	.
8EE-y	.	8F	.	8A	.	16ccL]	.
.	.	.	.	.	.	(16gg'	.
8EE-yJ	.	8FJ	.	8AJ	.	16ff'	.
.	.	.	.	.	.	16ee-'J	.
8E-L	.	8AL	.	8fL	.	16dd'L	.
.	.	.	.	.	.	16cc'	.
8E-yJ	.	8cJ	.	8fJ	.	16b-y'	.
.	.	.	.	.	.	16a'J)	.
=58	=58	=58	=58	=58	=58	=58	=58
8r	.	8dL	.	8fL	.	(8ccL	.
(16DL	.	8d	.	8f	.	8b-yJ)	.
16CJ	.	.	.	.	.	.	.
8E-L	.	8B-y	.	8f	.	8r	.
8DJ)	.	8B-y	.	8f	.	(16b-yL	.
.	.	.	.	.	.	16aJ	.
4r	.	8d	.	8f	.	8ccL	.
.	.	8dJ	.	8fJ	.	8bnJ)	.
=59	=59	=59	=59	=59	=59	=59	=59
8r	.	8e-L	.	8fL	.	(8ddL	.
(16AAL	.	8e-y	.	8f	.	8ccJ)	.
16GGJ	.	.	.	.	.	.	.
8BB-yL	.	8e-y	.	8f	.	8r	.
8AAJ)	.	8e-y	.	8f	.	(16ccL	.
.	.	.	.	.	.	16bnJ	.
4r	.	8e-y	.	8f	.	8ddL	.
.	.	8e-yJ	.	8fJ	.	8ccJ)	.
=60	=60	=60	=60	=60	=60	=60	=60
8r	.	8cL	.	8f#L	.	(8ee-L	.
(16AL	.	8c	.	8f#y	.	8ddJ)	.
16GJ	.	.	.	.	.	.	.
8B-yL	.	8c	.	8f#y	.	8r	.
8AJ)	.	8c	.	8f#y	.	(16ddL	.
.	.	.	.	.	.	16cc#J	.
4r	.	8c	.	8f#y	.	8ee-yL	.
.	.	8cJ	.	8f#yJ	.	8ddJ)	.
=61	=61	=61	=61	=61	=61	=61	=61
8r	.	8B-yL	.	8gL	.	4.dd	.
(16GL	.	8B-y	.	8g	.	.	.
16F#J	.	.	.	.	.	.	.
8AL	.	8B-y	.	8g	.	.	.
8GJ)	.	8d	.	8g	.	(16bb-yL	.
.	.	.	.	.	.	16aaJ	.
4r	.	8d	.	8g	.	8cccL	.
.	.	8dJ	.	8gJ	.	8bb-yJ)	.
=62	=62	=62	=62	=62	=62	=62	=62
8r	.	8enL	.	8gL	.	(8b-yL	.
(16C#L	.	8e	.	8g	.	8aJ)	.
16BBnJ	.	.	.	.	.	.	.
8DL	.	8e	.	8g	.	8r	.
8C#yJ)	.	8e	.	8g	.	(16aL	.
.	.	.	.	.	.	16g#J	.
4r	.	8e	.	8g	.	8b-yL	.
.	.	8eJ	.	8gJ	.	8aJ)	.
=63	=63	=63	=63	=63	=63	=63	=63
8r	.	8dL	.	8fnL	.	4.a	.
(16DL	.	8d	.	8f	.	.	.
16C#J	.	.	.	.	.	.	.
8EL	.	8d	.	8f	.	.	.
8DJ)	.	8d	.	8a	.	(16ffL	.
.	.	.	.	.	.	16eeJ	.
4r	.	8d	.	8a	.	8ggL	.
.	.	8dJ	.	8aJ	.	8ffJ)	.
=64	=64	=64	=64	=64	=64	=64	=64
8r	.	8dL	cre	8fL	cre	(8aL	cre
(16BB-L	.	8d	.	8f	.	8gJ)	.
16AAJ	.	.	.	.	.	.	.
8CL	.	8d	.	8f	.	8r	.
8BB-yJ)	.	8d	.	8f	.	(16gL	.
.	.	.	.	.	.	16f#J	.
8r	.	8d	.	8f	.	8aL	.
8BB-y	.	8dJ	.	8fJ	.	8gJ)	.
=65	=65	=65	=65	=65	=65	=65	=65
!!Error: measure 65, staff 3 is underfilled: adding token 8ryy at end of measure to complete its duration.
8r	cre	8dL	scen	(8fL	scen	(8ggL	scen
(16BBnL	.	8f 8d	.	8g)	.	8ffJ)	.
16AAJ	.	.	.	.	.	.	.
8CL	.	8f 8d	.	8g	.	8r	.
8BBJ)	.	8f 8d	.	8g	.	(16gL	.
.	.	.	.	.	.	16f#J	.
8r	.	8fJ 8d	.	8g	.	8aL	.
8BB	.	8ryy	.	8gJ	.	8gJ)	.
=66	=66	=66	=66	=66	=66	=66	=66
8r	scen	8fL 8c	do	8gL	do	(8ggL	do
(16CL	.	8f 8c	.	8g	.	8ffJ)	.
16BBnJ	.	.	.	.	.	.	.
8DL	.	8f 8c	.	8g	.	8r	.
8CJ)	.	8f 8c	.	8g	.	(16gL	.
.	.	.	.	.	.	16f#J	.
8r	.	8f 8c	.	8g	.	8aL	.
8C	.	8fJ 8c	.	8gJ	.	8gJ)	.
!!LO:LB
=67	=67	=67	=67	=67	=67	=67	=67
8r	do	8fL 8Bn	.	8gL	.	(8ggL	.
(16D-L	.	8f 8B	.	8g	.	8ffJ)	.
16CJ	.	.	.	.	.	.	.
8E-L	.	8f 8B	.	8g	.	8r	.
8D-yJ)	.	8f	.	8bn	.	(16ggL	.
.	.	.	.	.	.	16ffJ	.
8r	.	8f	.	8b	.	8aa-L	.
8D-y	.	8fJ	.	8bJ	.	8ffJ)	.
=68	=68	=68	=68	=68	=68	=68	=68
4C	.	(8gL	.	(8ccL	.	(16ffL	.
.	.	.	.	.	.	16ee	.
.	.	16f	.	8gJ)	.	16dd	.
.	.	16eJ)	.	.	.	16ccJ)	.
.	.	.	.	.	.	(<32qbnL	.
.	.	.	.	.	.	32qcc	.
.	.	.	.	.	.	32qddJ	.
4CC	.	8r	.	8r	.	2cc)	.
.	.	(16eL	.	(16gL	.	.	.
.	.	16dJ	.	16f#J	.	.	.
8r	.	8fL	.	8aL	.	.	.
(16EL	.	8eJ)	.	8gJ)	.	.	.
16CJ	.	.	.	.	.	.	.
=69	=69	=69	=69	=69	=69	=69	=69
8GL	cre	(8eL	cre	(8bL	cre	8ccL]	.
8FJ)	.	8fJ)	.	8aJ)	.	(16cc	.
.	.	.	.	.	.	16bnJ	.
(8BnL	.	8r	.	8r	.	8ddL	.
8cJ)	.	(16fL	.	(16aL	.	8ccJ)	.
.	.	16eJ	.	16g#J	.	.	.
8r	.	8gL	.	8b-yL	.	[4cc	.
(16FL	.	8fJ)	.	8aJ)	.	.	.
16CJ	.	.	.	.	.	.	.
=70	=70	=70	=70	=70	=70	=70	=70
8AL	scen	(8f#L	scen	(8ccL	scen	8ccL]	scendo
8GJ)	.	8gJ)	.	8b-yJ)	.	(16ccc	.
.	.	.	.	.	.	16bbnJ	.
(8BnL	.	8r	.	8r	.	8dddL	.
8cJ)	.	(16gL	.	(16b-yL	.	8cccJ)	.
.	.	16f#yJ	.	16aJ	.	.	.
8r	.	8aL	.	8ccL	.	[4ccc	.
(16GL	.	8gJ)	.	8b-yJ)	.	.	.
16CJ)	.	.	.	.	.	.	.
=71	=71	=71	=71	=71	=71	=71	=71
(8BL	do	(8e	do	(8ddL	do	2.ccc_	f
8A	.	4fn)	.	8cc	.	.	.
8A-	.	.	.	8bn	.	.	.
8G	.	(8eL	.	8b-	.	.	.
8F	.	8f)	.	8a	.	.	.
8BBnJ)	.	8fJ	.	8a-J)	.	.	.
!!LO:LB
=72	=72	=72	=72	=72	=72	=72	=72
4C	.	4e	.	4g	.	8cccL]	.
.	.	.	.	.	.	(16ccc	.
.	.	.	.	.	.	16bbnJ	.
4r	.	4r	.	4r	.	16dddL	.
.	.	.	.	.	.	16ccc	.
.	.	.	.	.	.	16bb-	.
.	.	.	.	.	.	16aaJ	.
4r	.	4r	.	4r	.	16cccL	.
.	.	.	.	.	.	16bb-y	.
.	.	.	.	.	.	16aa	.
.	.	.	.	.	.	16ggJ)	.
=73	=73	=73	=73	=73	=73	=73	=73
8CL	.	8eL	.	8b-yL	.	(16ff#L	.
.	.	.	.	.	.	16gg)	.
8CJ	.	8eJ	.	8b-yJ	.	(16ff#y	.
.	.	.	.	.	.	16ggJ)	.
8C	.	8e	.	8b-y	.	(16ff#yL	.
.	.	.	.	.	.	16ggJ)	.
8r	.	8r	.	8r	.	8r	.
4r	.	4r	.	4r	.	32r	.
.	.	.	.	.	.	(32ggL	.
.	.	.	.	.	.	32bb-y	.
.	.	.	.	.	.	32aaJ	.
.	.	.	.	.	.	32ggL	.
.	.	.	.	.	.	32ffn	.
.	.	.	.	.	.	32ee	.
.	.	.	.	.	.	32ddJ)	.
=74	=74	=74	=74	=74	=74	=74	=74
8eL	.	8gL	.	8b-yL	.	(16ddL	.
.	.	.	.	.	.	16cc)	.
8eJ	.	8gJ	.	8b-yJ	.	(16dd	.
.	.	.	.	.	.	16ccJ)	.
8e	.	8g	.	8b-y	.	(16ddL	.
.	.	.	.	.	.	16ccJ)	.
8r	.	8r	.	8r	.	8r	.
4r	.	4r	.	4r	.	4r	.
=75	=75	=75	=75	=75	=75	=75	=75
!!Error: measure 75, staff 1 is underfilled: adding token 2.ryy at end of measure to complete its duration.
(16FL	.	2.r	.	2.r	.	2.ryy	.
16E	.	.	.	.	.	.	.
16F	.	.	.	.	.	.	.
16CJ	.	.	.	.	.	.	.
16FL	.	.	.	.	.	.	.
16E	.	.	.	.	.	.	.
16F	.	.	.	.	.	.	.
16CJ	.	.	.	.	.	.	.
16FL	.	.	.	.	.	.	.
16E	.	.	.	.	.	.	.
16F	.	.	.	.	.	.	.
16CJ)	.	.	.	.	.	.	.
!!LO:LB
=76	=76	=76	=76	=76	=76	=76	=76
(16GL	.	4b-y	.	2c	.	(4f	.
16F#	.	.	.	.	.	.	.
16G	.	.	.	.	.	.	.
16CJ	.	.	.	.	.	.	.
16GL	.	(8b-y'L	.	.	.	4e)	.
16F#y	.	.	.	.	.	.	.
16G	.	8b-y'	.	.	.	.	.
16CJ	.	.	.	.	.	.	.
16GL	.	8b-y'	.	4r	.	4r	.
16F#y	.	.	.	.	.	.	.
16G	.	8b-y'J)	.	.	.	.	.
16CJ)	.	.	.	.	.	.	.
=77	=77	=77	=77	=77	=77	=77	=77
(16FnL	.	(4b-y	.	4ff	.	2cc	.
16E	.	.	.	.	.	.	.
16F	.	.	.	.	.	.	.
16CJ	.	.	.	.	.	.	.
16FL	.	4a)	.	(8ff'L	.	.	.
16E	.	.	.	.	.	.	.
16F	.	.	.	8ff'	.	.	.
16CJ	.	.	.	.	.	.	.
16FL	.	4r	.	8ff'	.	4r	.
16E	.	.	.	.	.	.	.
16F	.	.	.	8ff'J)	.	.	.
16CJ)	.	.	.	.	.	.	.
=78	=78	=78	=78	=78	=78	=78	=78
(16GL	.	2cc	.	(4ff	.	4bb-y	.
16F#	.	.	.	.	.	.	.
16G	.	.	.	.	.	.	.
16CJ	.	.	.	.	.	.	.
16GL	.	.	.	4ee)	.	(8bb-y'L	.
16F#y	.	.	.	.	.	.	.
16G	.	.	.	.	.	8bb-y'	.
16CJ	.	.	.	.	.	.	.
16GL	.	4r	.	4r	.	8bb-y'	.
16F#y	.	.	.	.	.	.	.
16G	.	.	.	.	.	8bb-y'J)	.
16CJ)	.	.	.	.	.	.	.
=79	=79	=79	=79	=79	=79	=79	=79
(16FnL	cresc.	4.cc	cresc.	4.ee-	cresc.	(4bb-y	cresc.
16E	.	.	.	.	.	.	.
16F	.	.	.	.	.	.	.
16CJ	.	.	.	.	.	.	.
16FL	.	.	.	.	.	8aaL)	.
16E	.	.	.	.	.	.	.
16F	.	(8cc'L	.	(8aa'L	.	(8eee-'	.
16CJ	.	.	.	.	.	.	.
16FL	.	8cc'	.	8aa'	.	8eee-y'	.
16E	.	.	.	.	.	.	.
16F	.	8cc'J)	.	8aa'J)	.	8eee-y'J)	.
16CJ)	.	.	.	.	.	.	.
=80	=80	=80	=80	=80	=80	=80	=80
4AA	.	4f	.	4ccc 4ee-	.	4eee- 4ff	.
4BB-y	.	4f	.	4bb-y 4dd	.	4ddd 4ff	.
4r	.	4r	.	4r	.	4r	.
=81	=81	=81	=81	=81	=81	=81	=81
2.r	.	4B-y	.	4f 4d	.	4g	.
.	.	(8B-y'L	.	8f'L (8d'	.	(8g'L	.
.	.	8B-y'	.	8f' 8d'	.	8g'	.
.	.	8B-y'	.	8f' 8d'	.	8g'	.
.	.	8B-y'J)	.	8f'J 8d')	.	8g'J)	.
=82	=82	=82	=82	=82	=82	=82	=82
2.r	.	4B-y	.	4f 4d-	.	(16gL	.
.	.	.	.	.	.	32a-	.
.	.	.	.	.	.	32b-y	.
.	.	.	.	.	.	16a-y	.
.	.	.	.	.	.	16gJ)	.
.	.	(8B-yL	.	8fL (8d-y	.	(8g'L	.
.	.	8B-y	.	8f 8d-y	.	8g'	.
.	.	8B-y	.	8f 8d-y	.	8g'	.
.	.	8B-yJ)	.	8fJ 8d-y)	.	8g'J)	.
=83	=83	=83	=83	=83	=83	=83	=83
(4BB	.	(2F	.	(4G	.	(8.dL	.
.	.	.	.	.	.	16gJ)	.
4C	.	.	.	4A	.	(4f	.
.	.	.	.	.	.	(<16qan	.
4C#)	.	4E)	.	4B-y)	.	8.gL)	.
.	.	.	.	.	.	16fJ)	.
=84	=84	=84	=84	=84	=84	=84	=84
4D	.	4F	.	4A	.	4f	.
4r	.	4r	.	4r	.	4r	.
4r	.	4r	.	4r	.	4r	.
=85	=85	=85	=85	=85	=85	=85	=85
(16FFL	.	4F	.	2.r	.	2.r	.
16EE	.	.	.	.	.	.	.
16FF	.	.	.	.	.	.	.
16CCJ	.	.	.	.	.	.	.
16FFL	.	(8F'L	.	.	.	.	.
16EE	.	.	.	.	.	.	.
16FF	.	8F'	.	.	.	.	.
16CCJ	.	.	.	.	.	.	.
16FFL	.	8F'	.	.	.	.	.
16EE	.	.	.	.	.	.	.
16FF	.	8F'J)	.	.	.	.	.
16CCJ)	.	.	.	.	.	.	.
!!LO:LB
=86	=86	=86	=86	=86	=86	=86	=86
(16GGL	.	(4F	.	4B-y	.	2.r	.
16FF#	.	.	.	.	.	.	.
16GG	.	.	.	.	.	.	.
16CCJ	.	.	.	.	.	.	.
16GGL	.	4E)	.	(8B-y'L	.	.	.
16FF#y	.	.	.	.	.	.	.
16GG	.	.	.	8B-y'	.	.	.
16CCJ	.	.	.	.	.	.	.
16GGL	.	4r	.	8B-y'	.	.	.
16FF#y	.	.	.	.	.	.	.
16GG	.	.	.	8B-y'J)	.	.	.
16CCJ)	.	.	.	.	.	.	.
=87	=87	=87	=87	=87	=87	=87	=87
(16FFnL	.	2c	.	(4B-y	.	4f	.
16EE	.	.	.	.	.	.	.
16FF	.	.	.	.	.	.	.
16CCJ	.	.	.	.	.	.	.
16FFL	.	.	.	4A-)	.	(8f'L	.
16EE	.	.	.	.	.	.	.
16FF	.	.	.	.	.	8f'	.
16CCJ	.	.	.	.	.	.	.
16FFL	.	4r	.	4r	.	8f'	.
16EE	.	.	.	.	.	.	.
16FF	.	.	.	.	.	8f'J)	.
16CCJ)	.	.	.	.	.	.	.
=88	=88	=88	=88	=88	=88	=88	=88
(16GGL	.	4b-y	.	2c	.	(4f	.
16FF#	.	.	.	.	.	.	.
16GG	.	.	.	.	.	.	.
16CCJ	.	.	.	.	.	.	.
16GGL	.	(8b-y'L	.	.	.	4e)	.
16FF#y	.	.	.	.	.	.	.
16GG	.	8b-y'	.	.	.	.	.
16CCJ	.	.	.	.	.	.	.
16GGL	.	8b-y'	.	4r	.	4r	.
16FF#y	.	.	.	.	.	.	.
16GG	.	8b-y'J)	.	.	.	.	.
16CCJ)	.	.	.	.	.	.	.
=89	=89	=89	=89	=89	=89	=89	=89
(16FFnL	crescendo	(4b-y	cresc.	4cc	cresc.	2c	.
16EE	.	.	.	.	.	.	.
16FF	.	.	.	.	.	.	.
16CCJ	.	.	.	.	.	.	.
16FFL	.	4a-)	.	(8cc'L	.	.	.
16EE	.	.	.	.	.	.	.
16FF	.	.	.	8cc'	.	.	.
16CCJ)	.	.	.	.	.	.	.
(16AA-L	.	4f	.	8cc'	.	4r	.
16GG	.	.	.	.	.	.	.
16AA-y	.	.	.	8cc'J)	.	.	.
16FFJ)	.	.	.	.	.	.	.
!!LO:LB
=90	=90	=90	=90	=90	=90	=90	=90
(16BB-yL	.	(2f	.	(4cc	.	4dd-	.
16AAn	.	.	.	.	.	.	.
16BB-y	.	.	.	.	.	.	.
16FFJ)	.	.	.	.	.	.	.
(16D-L	.	.	.	2b-y)	.	(8dd-y'L	.
16C	.	.	.	.	.	.	.
16D-y	.	.	.	.	.	8dd-y'	.
16BB-yJ)	.	.	.	.	.	.	.
(16GGL	.	4e-)	.	.	.	8dd-y'	.
16FF	.	.	.	.	.	.	.
16GG	.	.	.	.	.	8dd-y'J)	.
16EE-J)	.	.	.	.	.	.	.
=91	=91	=91	=91	=91	=91	=91	=91
(16AA-L	.	(2e-y_	.	(4b-y_	.	(4dd-	.
16GG	.	.	.	.	.	.	.
16AA-y	.	.	.	.	.	.	.
16EE-J)	.	.	.	.	.	.	.
(16CL	.	.	.	2a-)	.	8ccL)	.
16BB-y	.	.	.	.	.	.	.
16C	.	.	.	.	.	(8cc'	.
16AA-yJ)	.	.	.	.	.	.	.
(16FFL	.	4dn)	.	.	.	8cc'	.
16EE-y	.	.	.	.	.	.	.
16FF	.	.	.	.	.	8cc'J)	.
16DDnJ)	.	.	.	.	.	.	.
=92	=92	=92	=92	=92	=92	=92	=92
(16GGL	.	(4.d_	.	(8a-y_	.	(8ccL	.
16FF	.	.	.	.	.	.	.
16GG	.	.	.	4g)	.	8bnJ	.
16DDJ)	.	.	.	.	.	.	.
(16BB-yL	.	.	.	.	.	8b-L)	.
16AA-	.	.	.	.	.	.	.
16BB-y	.	8d-	.	(8g'L	.	(8b-y'	.
16GGJ)	.	.	.	.	.	.	.
(16EEnL	.	4c)	.	8g'	.	8b-y'	.
16DD	.	.	.	.	.	.	.
16EE	.	.	.	8g'J)	.	8b-y'J)	.
16CCJ)	.	.	.	.	.	.	.
=93	=93	=93	=93	=93	=93	=93	=93
(16FFL	.	4.c]	.	(8g	.	(8b-yL	.
16EE	.	.	.	.	.	.	.
16FF	.	.	.	4f)	.	8anJ	.
16CCJ)	.	.	.	.	.	.	.
(16AA-L	.	.	.	.	.	8a-L)	.
16GG	.	.	.	.	.	.	.
16AA-y	.	(8cL	.	(8f'L	.	(8a-y'	.
16FFJ)	.	.	.	.	.	.	.
(16D-L	.	8A-	.	8f'	.	8a-y'	.
16C	.	.	.	.	.	.	.
16D-y	.	8FJ)	.	8f'J)	.	8a-y'J)	.
16CJ)	.	.	.	.	.	.	.
!!LO:LB
=94	=94	=94	=94	=94	=94	=94	=94
4BB-y	.	4f 4d-	.	4g	.	4g	.
(8BB-y'L	.	(8f'L 8d-y'	.	(8g'L	.	4r	.
8BB-y'	.	8f' 8d-y'	.	8g'	.	.	.
8BB-y'	.	8f' 8d-y'	.	8g'	.	4r	.
8BB-y'J)	.	8f'J) 8d-y'	.	8g'J)	.	.	.
=95	=95	=95	=95	=95	=95	=95	=95
4BB-y	.	4e 4d-	.	4g	.	(16ggL	.
.	.	.	.	.	.	32aa-	.
.	.	.	.	.	.	32bb-y	.
.	.	.	.	.	.	16aa-y	.
.	.	.	.	.	.	16ggJ)	.
(8BB-yL	.	(8eL 8d-y	.	(8gL	.	(8gg'L	.
8BB-yJ)	.	8eJ 8d-y)	.	8gJ)	.	8gg'J)	.
4BBn	.	4f 4dn	.	4a-	.	(16ffL	.
.	.	.	.	.	.	32gg	.
.	.	.	.	.	.	32aa-y	.
.	.	.	.	.	.	16gg	.
.	.	.	.	.	.	16ffJ)	.
=96	=96	=96	=96	=96	=96	=96	=96
(8BBL	.	(8fL 8d	.	(8a-L	.	(8ff'L	.
8BBJ)	.	8fJ 8d)	.	8a-yJ)	.	8ff'J)	.
(4C	.	(4f 4c	.	(4an	.	(4ff	.
.	.	.	.	.	.	(<16qaan	.
4C#)	.	4B-y)	.	4e)	.	8.ggL)	.
.	.	.	.	.	.	16ffJ)	.
=97	=97	=97	=97	=97	=97	=97	=97
(4D	.	8A	.	8f	.	(4ff	.
.	.	(8FL	.	(8fL	.	.	.
4Cn	.	8F#	.	8f#	.	4ee	.
.	.	8G	.	8g	.	.	.
4FF)	.	8A-	.	8a-	.	4ee-)	.
.	.	8AnJ)	.	8anJ)	.	.	.
=98	=98	=98	=98	=98	=98	=98	=98
4BB-y	.	8B-yL	.	8b-yL	.	(8cc#L	.
.	.	8B-yJ	.	8fJ	.	8ddJ)	.
4r	.	8B-yL	.	8fL	.	(32ddL_	.
.	.	.	.	.	.	32een	.
.	.	.	.	.	.	32dd	.
.	.	.	.	.	.	32cc#y	.
.	.	8B-y	.	8f	.	32dd	.
.	.	.	.	.	.	32ee	.
.	.	.	.	.	.	32dd	.
.	.	.	.	.	.	32eeJ)	.
4BB-y	.	8B-y	.	8f	.	(16ggL	.
.	.	.	.	.	.	16ff	.
.	.	8B-yJ	.	8fJ	.	16ee	.
.	.	.	.	.	.	16ddJ)	.
=99	=99	=99	=99	=99	=99	=99	=99
(4AA	cresc.	2.c	cresc.	(8f	cresc.	(4.ccn	cresc.
.	.	.	.	4cc	.	.	.
4GG	.	.	.	.	.	.	.
.	.	.	.	8bnL	.	8ddL	.
4FF)	.	.	.	8b-	.	8ee	.
.	.	.	.	8aJ)	.	8ffJ)	.
=100	=100	=100	=100	=100	=100	=100	=100
8CL	.	8r	.	8r	.	(16ccL	.
.	.	.	.	.	.	16bn	.
8C	.	8A	.	8f	.	16b-	.
.	.	.	.	.	.	16aJ)	.
8C	.	8B-yL	.	8fL	.	2gT	.
8C	.	8B-y	.	8f	.	.	.
8C	.	8B-y	.	8e	.	.	.
8CJ	.	8B-yJ	.	8eJ	.	.	.
.	.	.	.	.	.	(32qfL	.
.	.	.	.	.	.	32qgJ)	.
=101	=101	=101	=101	=101	=101	=101	=101
8FF	.	16AL	.	8fL	.	4f	.
.	.	16A	.	.	.	.	.
8r	.	16A	.	(16c	.	.	.
.	.	16AJ	.	16BnJ	.	.	.
8AA	.	16FL	.	8dL	.	4r	.
.	.	16F	.	.	.	.	.
8r	.	16F	.	8cJ)	.	.	.
.	.	16FJ	.	.	.	.	.
8FF	.	16AL	.	8r	.	4r	.
.	.	16A	.	.	.	.	.
8r	.	16A	.	8c	.	.	.
.	.	16AJ	.	.	.	.	.
=102	=102	=102	=102	=102	=102	=102	=102
8GG	.	16EL	.	8r	.	(2b-y	.
.	.	16E	.	.	.	.	.
8r	.	16E	.	(16cL	.	.	.
.	.	16EJ	.	16BnJ	.	.	.
8EE	.	16GL	.	8dL	.	.	.
.	.	16G	.	.	.	.	.
8r	.	16G	.	8cJ)	.	.	.
.	.	16GJ	.	.	.	.	.
8BB-y	.	16EL	.	8r	.	8.gL	.
.	.	16E	.	.	.	.	.
8r	.	16E	.	8c	.	.	.
.	.	16GJ	.	.	.	16eJ)	.
!!LO:LB
=103	=103	=103	=103	=103	=103	=103	=103
8AA	.	16FL	.	8r	.	(2cc	.
.	.	16F	.	.	.	.	.
8r	.	16F	.	(16fL	.	.	.
.	.	16FJ	.	16eJ	.	.	.
8AA	.	16FL	.	8gL	.	.	.
.	.	16F	.	.	.	.	.
8r	.	16F	.	8fJ)	.	.	.
.	.	16FJ	.	.	.	.	.
8BB-y	.	16FL	.	8r	.	4dd)	.
.	.	16F	.	.	.	.	.
8r	.	16F	.	8f	.	.	.
.	.	16FJ	.	.	.	.	.
=104	=104	=104	=104	=104	=104	=104	=104
8C	.	16AL	.	8r	.	(2f	.
.	.	16A	.	.	.	.	.
8r	.	16A	.	(16cL	.	.	.
.	.	16AJ	.	16BnJ	.	.	.
8C	.	16AL	.	8dL	.	.	.
.	.	16A	.	.	.	.	.
8r	.	16A	.	8cJ)	.	.	.
.	.	16AJ	.	.	.	.	.
8CC	.	16EL	.	8r	.	4g)	.
.	.	16E	.	.	.	.	.
8r	.	16E	.	8c	.	.	.
.	.	16EJ	.	.	.	.	.
=105	=105	=105	=105	=105	=105	=105	=105
8FF	.	16GL	.	8r	.	(4b-y	.
.	.	16G	.	.	.	.	.
8r	.	16G	.	(16cL	.	.	.
.	.	16GJ	.	16BnJ	.	.	.
8F	.	16FL	.	8dL	.	4a)	.
.	.	16F	.	.	.	.	.
8r	.	16F	.	8cJ)	.	.	.
.	.	16FJ	.	.	.	.	.
8A	.	16fL	.	8r	.	4r	.
.	.	16f	.	.	.	.	.
8r	.	16f	.	8c	.	.	.
.	.	16fJ	.	.	.	.	.
=106	=106	=106	=106	=106	=106	=106	=106
8G	.	16eL	.	8r	.	(2bb-y	.
.	.	16e	.	.	.	.	.
8r	.	16e	.	(16ccL	.	.	.
.	.	16eJ	.	16bnJ	.	.	.
8E	.	16gL	.	8ddL	.	.	.
.	.	16g	.	.	.	.	.
8r	.	16g	.	8ccJ)	.	.	.
.	.	16gJ	.	.	.	.	.
8B-y	.	16eL	.	8r	.	8.ggL	.
.	.	16e	.	.	.	.	.
8r	.	16e	.	8cc	.	.	.
.	.	16gJ	.	.	.	16eeJ)	.
!!LO:LB
=107	=107	=107	=107	=107	=107	=107	=107
8A	cresc.	16fL	cresc.	8r	cresc.	(4.ccc	cresc.
.	.	16f	.	.	.	.	.
8r	.	16f	.	(16ffL	.	.	.
.	.	16fJ	.	16eeJ	.	.	.
(4A	.	16e-L	.	8ggL	.	.	.
.	.	16e-y	.	.	.	.	.
.	.	16e-y	.	8ffJ)	.	8ccc#L	.
.	.	16e-yJ	.	.	.	.	.
8B-yL	.	16dL	.	8r	.	8ddd	.
.	.	16d	.	.	.	.	.
8BnJ	.	16a-	.	8ff	.	8fffJ)	.
.	.	16a-yJ	.	.	.	.	.
=108	=108	=108	=108	=108	=108	=108	=108
8c)	.	16anL	.	8r	.	2ff	.
.	.	16a	.	.	.	.	.
8r	.	16a	.	(16ccL	.	.	.
.	.	16aJ	.	16bnJ	.	.	.
8C	.	16aL	.	8ddL	.	.	.
.	.	16a	.	.	.	.	.
8r	.	16a	.	8ccJ)	.	.	.
.	.	16aJ	.	.	.	.	.
8C	.	16eL	.	8r	.	(8.ggLT	.
.	.	16e	.	.	.	.	.
8r	.	16e	.	8b-	.	.	.
.	.	16eJ	.	.	.	32ff	.
.	.	.	.	.	.	32ggJ)	.
=109	=109	=109	=109	=109	=109	=109	=109
8r	.	16fL	.	16aL	.	4ff	.
.	.	16c	.	16a	.	.	.
(16FL	.	16c	.	16a	.	.	.
16EJ	.	16cJ	.	16aJ	.	.	.
8GL	.	16cL	.	16aL	.	4r	.
.	.	16c	.	16a	.	.	.
8FJ)	.	16c	.	16a	.	.	.
.	.	16cJ	.	16aJ	.	.	.
8r	.	16cL	.	16aL	.	8ee-	.
.	.	16c	.	16a	.	.	.
8F	.	16c	.	16a	.	8r	.
.	.	16cJ	.	16aJ	.	.	.
=110	=110	=110	=110	=110	=110	=110	=110
8r	.	16B-yL	.	(16b-yL	.	8dd	.
.	.	16B-y	.	16f)	.	.	.
(16FL	.	16B-y	.	16f	.	8r	.
16EJ	.	16B-yJ	.	16fJ	.	.	.
8GL	.	16B-yL	.	(16fL	.	8dd-	.
.	.	16B-y	.	16e)	.	.	.
8FJ)	.	16B-y	.	16e	.	8r	.
.	.	16B-yJ	.	16eJ	.	.	.
8r	.	16AL	.	(16fL	.	[4cc	.
.	.	16A	.	16e-)	.	.	.
8F	.	16A	.	16e-y	.	.	.
.	.	16AJ	.	16e-yJ	.	.	.
!!LO:LB
=111	=111	=111	=111	=111	=111	=111	=111
8r	.	16fL	.	16dL	.	(8ccL_	.
.	.	16f	.	16d	.	.	.
(16FFL	.	16f	.	16d	.	8bnJ)	.
16EEJ	.	16fJ	.	16dJ	.	.	.
8GGL	.	16d-L	.	16enL	.	(4b-	.
.	.	16d-y	.	16e	.	.	.
8FFJ)	.	16d-y	.	16e	.	.	.
.	.	16d-yJ	.	16eJ	.	.	.
8r	.	16cL	.	16fL	.	4a)	.
.	.	16c	.	16f	.	.	.
8FF	.	16c	.	16f	.	.	.
.	.	16cJ	.	16fJ	.	.	.
=112	=112	=112	=112	=112	=112	=112	=112
8r	.	16EL	.	16d-L	.	(2g	.
.	.	16E	.	16d-y	.	.	.
(16FFL	.	16E	.	16d-y	.	.	.
16EEJ	.	16EJ	.	16d-yJ	.	.	.
8GGL	.	16EL	.	16cL	.	.	.
.	.	16E	.	16c	.	.	.
8FFJ)	.	16E	.	16c	.	.	.
.	.	16EJ	.	16cJ	.	.	.
.	.	.	.	.	.	(<32qaL	.
.	.	.	.	.	.	32qg	.
.	.	.	.	.	.	32qf#	.
.	.	.	.	.	.	32qgJ)	.
8r	.	16EL	.	16B-yL	.	4cc)	.
.	.	16E	.	16B-y	.	.	.
8FF	.	16E	.	16B-y	.	.	.
.	.	16EJ	.	16B-yJ	.	.	.
=113	=113	=113	=113	=113	=113	=113	=113
(16FFL	.	16FL	.	16AL	.	8f	.
16EE	.	16C	.	16A	.	.	.
16FF	.	16C	.	16A	.	8r	.
16CCJ	.	16CJ	.	16AJ	.	.	.
16FFL	.	16CL	.	16AL	.	8f	.
16EE	.	16C	.	16A	.	.	.
16FF	.	16C	.	16A	.	8r	.
16CCJ	.	16CJ	.	16AJ	.	.	.
16FFL	.	16CL	.	16AL	.	8f	.
16EE	.	16C	.	16A	.	.	.
16FF	.	16C	.	16A	.	8r	.
16CCJ)	.	16CJ	.	16AJ	.	.	.
=114	=114	=114	=114	=114	=114	=114	=114
.	.	.	.	.	.	(<32qeL	.
.	.	.	.	.	.	32qf	.
.	.	.	.	.	.	32qgJ	.
2FF	.	2C	.	2A	.	2f)	.
4r	.	4r	.	4r	.	4r	.
==	==	==	==	==	==	==	==
*-	*-	*-	*-	*-	*-	*-	*-
!!!RDF**kern: < = below
